X: 16066
T: Green Fields Of Glentown, The
R: reel
M: 4/4
K: Adorian
|:E~A,3 EFDB,|G,~B,2 A, G,2 B,D|~E3D EDB,D|GBeB dBAB|
e~B3 eBdB|A~E3 DB,G,B,|A,~E3 A,EDE|GED ~B,2 ~A,3:|
|:A2EA cAEA|G2DB, G,A,B,D|EA (3AAA EA (3Bcd|edBA aged|
b~g3 a~g2e|d~B3 AEDB,|A,~E3 A,EDE|GED ~B,2 ~A,3:|
|:A2EA cAEA|a2ge bage|dB (3GGG G2Bd|gedB Agdg|
e2Ae fedB|A~E3 DB,G,B,|~A,3E EDEF|EB,G~B,2 ~A,3:|

